public/icons/warning.svg

<svg width="25" height="25" viewBox="0 0 25 25" fill="none" xmlns="http://www.w3.org/2000/svg">
    <mask id="path-1-inside-1_1285_3585" fill="white">
        <path d="M25 12.5C25 19.4036 19.4036 25 12.5 25C5.59644 25 0 19.4036 0 12.5C0 5.59644 5.59644 0 12.5 0C19.4036 0 25 5.59644 25 12.5ZM1.25 12.5C1.25 18.7132 6.2868 23.75 12.5 23.75C18.7132 23.75 23.75 18.7132 23.75 12.5C23.75 6.2868 18.7132 1.25 12.5 1.25C6.2868 1.25 1.25 6.2868 1.25 12.5Z"/>
    </mask>
    <path d="M25 12.5C25 19.4036 19.4036 25 12.5 25C5.59644 25 0 19.4036 0 12.5C0 5.59644 5.59644 0 12.5 0C19.4036 0 25 5.59644 25 12.5ZM1.25 12.5C1.25 18.7132 6.2868 23.75 12.5 23.75C18.7132 23.75 23.75 18.7132 23.75 12.5C23.75 6.2868 18.7132 1.25 12.5 1.25C6.2868 1.25 1.25 6.2868 1.25 12.5Z" stroke="white" stroke-width="12" mask="url(#path-1-inside-1_1285_3585)"/>
    <g clip-path="url(#clip0_1285_3585)">
        <path d="M7 12.6792C7.02583 12.4799 7.04592 12.2775 7.08322 12.0812C7.31281 10.7902 7.92695 9.75373 8.9113 8.97483C9.86695 8.21432 10.9517 7.9046 12.137 8.0242C14.2233 8.23885 15.905 9.90399 16.281 12.1058C16.2839 12.118 16.2867 12.1272 16.2925 12.1548C16.3183 12.1303 16.3384 12.115 16.3527 12.0935C16.4933 11.9156 16.6311 11.7347 16.7746 11.5569C17.0357 11.2318 17.4547 11.1889 17.7503 11.4557C18.043 11.7194 18.0832 12.1671 17.8307 12.4922C17.2883 13.1944 16.7402 13.8936 16.192 14.5866C15.9423 14.9025 15.532 14.9454 15.2306 14.6817C14.5677 14.099 13.9105 13.5072 13.2533 12.9153C12.9635 12.6547 12.9348 12.2008 13.1701 11.8942C13.4112 11.5845 13.8244 11.5323 14.1229 11.7838C14.3697 11.9923 14.6079 12.2131 14.8489 12.4278C14.8719 12.4492 14.8977 12.4707 14.9436 12.5106C14.9236 12.3971 14.9121 12.3051 14.8949 12.2162C14.5792 10.7166 13.3681 9.6004 11.9275 9.48387C10.174 9.33974 8.62432 10.689 8.3976 12.5535C8.17662 14.3781 9.33029 16.1015 11.0177 16.4603C11.233 16.5063 11.4568 16.5216 11.6778 16.5339C12.071 16.5553 12.3694 16.8742 12.3637 17.276C12.3579 17.6869 12.0451 18.0027 11.652 18.0027C9.44508 17.9966 7.51944 16.3069 7.08896 13.9917C7.05166 13.7678 7.0287 13.544 7 13.3201C7 13.1055 7 12.8908 7 12.6792Z" fill="white"/>
    </g>
    <defs>
        <clipPath id="clip0_1285_3585">
            <rect width="11" height="10" fill="white" transform="translate(7 8)"/>
        </clipPath>
    </defs>
</svg>

<svg width="25" height="25" fill="none" xmlns="http://www.w3.org/2000/svg"><mask id="a" fill="#fff"><path d="M25 12.5C25 19.404 19.404 25 12.5 25S0 19.404 0 12.5 5.596 0 12.5 0 25 5.596 25 12.5zm-23.75 0c0 6.213 5.037 11.25 11.25 11.25s11.25-5.037 11.25-11.25S18.713 1.25 12.5 1.25 1.25 6.287 1.25 12.5z"/></mask><path d="M25 12.5C25 19.404 19.404 25 12.5 25S0 19.404 0 12.5 5.596 0 12.5 0 25 5.596 25 12.5zm-23.75 0c0 6.213 5.037 11.25 11.25 11.25s11.25-5.037 11.25-11.25S18.713 1.25 12.5 1.25 1.25 6.287 1.25 12.5z" stroke="#fff" stroke-width="12" mask="url(#a)"/><g clip-path="url(#b)"><path d="M7 12.68c.026-.2.046-.402.083-.599.23-1.29.844-2.327 1.828-3.106.956-.76 2.04-1.07 3.226-.95 2.086.214 3.768 1.879 4.144 4.08l.012.05c.025-.025.045-.04.06-.061.14-.178.278-.36.422-.537.26-.325.68-.368.975-.101a.76.76 0 0 1 .08 1.036 230.27 230.27 0 0 1-1.638 2.095c-.25.316-.66.358-.961.095-.663-.583-1.32-1.175-1.978-1.767a.763.763 0 0 1-.083-1.02c.241-.31.654-.363.953-.111.247.208.485.43.726.644l.095.083c-.02-.114-.032-.206-.05-.295-.315-1.5-1.526-2.616-2.966-2.732-1.754-.144-3.304 1.205-3.53 3.07-.221 1.824.932 3.548 2.62 3.906.215.046.439.062.66.074a.72.72 0 0 1 .686.742c-.006.41-.319.727-.712.727-2.207-.006-4.133-1.696-4.563-4.011-.037-.224-.06-.448-.089-.672v-.64z" fill="#fff"/></g><defs><clipPath id="b"><path fill="#fff" transform="translate(7 8)" d="M0 0h11v10H0z"/></clipPath></defs></svg>
